src/icons/guillemets.svg

<?xml version="1.0" encoding="UTF-8"?>
<svg width="119px" height="137px" viewBox="0 0 119 137" version="1.1" xmlns="http://www.w3.org/2000/svg" xmlns:xlink="http://www.w3.org/1999/xlink">
    <title>ICON/GUILLEMETS</title>
    <g id="ICON/GUILLEMETS" stroke="none" stroke-width="1" fill="none" fill-rule="evenodd">
        <path d="M32.776,112.925 C36.9533333,112.925 39.9658333,112.041333 41.8135,110.274 C43.6611667,108.506667 45.1473333,105.614667 46.272,101.598 C46.5933333,99.188 46.5531667,97.5813333 46.1515,96.778 C45.7498333,95.9746667 44.6653333,95.091 42.898,94.127 C42.5766667,93.8056667 42.0143333,93.163 41.211,92.199 C40.4076667,91.235 39.8453333,90.753 39.524,90.753 C38.2386667,90.753 36.9131667,90.1505 35.5475,88.9455 C34.1818333,87.7405 32.9768333,86.2141667 31.9325,84.3665 C30.8881667,82.5188333 30.0848333,80.4703333 29.5225,78.221 C28.9601667,75.9716667 28.7593333,73.7223333 28.92,71.473 C29.0806667,70.027 29.2815,68.3801667 29.5225,66.5325 C29.7635,64.6848333 30.2455,62.7568333 30.9685,60.7485 C31.6915,58.7401667 32.6956667,56.772 33.981,54.844 C35.2663333,52.916 36.873,51.3093333 38.801,50.024 C40.8896667,48.2566667 42.416,46.8508333 43.38,45.8065 C44.344,44.7621667 45.9506667,43.9186667 48.2,43.276 C49.4853333,42.9546667 50.369,42.7136667 50.851,42.553 C51.333,42.3923333 52.4576667,42.1513333 54.225,41.83 C54.8676667,41.83 55.3496667,41.7496667 55.671,41.589 C55.9923333,41.4283333 56.2333333,41.2676667 56.394,41.107 C57.0366667,41.107 57.6391667,40.5446667 58.2015,39.42 C58.7638333,38.2953333 59.045,37.0903333 59.045,35.805 C59.045,34.0376667 58.4826667,32.8326667 57.358,32.19 C56.2333333,31.5473333 54.7873333,31.226 53.02,31.226 C51.8953333,31.226 51.1321667,31.3063333 50.7305,31.467 C50.3288333,31.6276667 48.6016667,32.19 45.549,33.154 C44.585,33.4753333 43.7415,33.7163333 43.0185,33.877 C42.2955,34.0376667 41.6126667,34.2786667 40.97,34.6 C39.2026667,34.9213333 37.9575,35.4033333 37.2345,36.046 C36.5115,36.6886667 35.5073333,37.492 34.222,38.456 C33.258,39.0986667 32.4948333,39.5806667 31.9325,39.902 C31.3701667,40.2233333 30.848,40.5446667 30.366,40.866 C29.884,41.1873333 29.3216667,41.6693333 28.679,42.312 C28.0363333,42.9546667 27.1526667,43.9186667 26.028,45.204 C25.2246667,46.4893333 24.4615,47.5738333 23.7385,48.4575 C23.0155,49.3411667 22.2925,50.1445 21.5695,50.8675 C20.8465,51.5905 20.2038333,52.3536667 19.6415,53.157 C19.0791667,53.9603333 18.557,54.9243333 18.075,56.049 C17.2716667,57.013 16.5888333,58.3385 16.0265,60.0255 C15.4641667,61.7125 15.0223333,63.038 14.701,64.002 C14.3796667,64.966 14.1788333,65.8496667 14.0985,66.653 C14.0181667,67.4563333 13.8173333,68.34 13.496,69.304 C13.1746667,71.0713333 12.8131667,72.5173333 12.4115,73.642 C12.0098333,74.7666667 11.6483333,76.2126667 11.327,77.98 C10.6843333,79.426 10.7245,81.3138333 11.4475,83.6435 C12.1705,85.9731667 12.3713333,88.102 12.05,90.03 C12.05,91.476 12.2106667,92.6408333 12.532,93.5245 C12.8533333,94.4081667 13.3353333,95.4926667 13.978,96.778 C14.2993333,98.5453333 14.6608333,99.911 15.0625,100.875 C15.4641667,101.839 15.9863333,102.963667 16.629,104.249 C17.4323333,105.534333 18.4365,106.458167 19.6415,107.0205 C20.8465,107.582833 22.0916667,108.185333 23.377,108.828 C25.1443333,109.952667 26.6706667,110.916667 27.956,111.72 C29.2413333,112.523333 30.848,112.925 32.776,112.925 Z M76.397,112.925 C80.4136667,112.925 83.9483333,111.72 87.001,109.31 C90.0536667,106.9 92.062,103.606333 93.026,99.429 C93.3473333,97.1796667 93.3071667,95.332 92.9055,93.886 C92.5038333,92.44 91.4996667,91.1546667 89.893,90.03 C89.5716667,89.7086667 89.0093333,89.4275 88.206,89.1865 C87.4026667,88.9455 86.8403333,88.825 86.519,88.825 C85.3943333,88.825 84.591,88.584 84.109,88.102 C83.627,87.62 83.0646667,87.379 82.422,87.379 C82.1006667,87.379 81.7793333,87.4995 81.458,87.7405 C81.1366667,87.9815 80.8153333,88.102 80.494,88.102 C79.048,88.102 77.6421667,87.379 76.2765,85.933 C74.9108333,84.487 73.7861667,82.8 72.9025,80.872 C72.0188333,78.944 71.336,77.016 70.854,75.088 C70.372,73.16 70.2113333,71.714 70.372,70.75 C70.5326667,69.4646667 70.7736667,67.858 71.095,65.93 C71.4163333,64.002 71.9385,62.0338333 72.6615,60.0255 C73.3845,58.0171667 74.3485,56.049 75.5535,54.121 C76.7585,52.193 78.4053333,50.5863333 80.494,49.301 C82.422,47.5336667 84.5508333,46.2483333 86.8805,45.445 C89.2101667,44.6416667 91.4996667,43.9186667 93.749,43.276 C95.0343333,42.9546667 95.918,42.7136667 96.4,42.553 C96.882,42.3923333 98.0066667,42.1513333 99.774,41.83 C100.416667,41.83 100.898667,41.7496667 101.22,41.589 C101.541333,41.4283333 101.782333,41.2676667 101.943,41.107 C102.585667,41.107 103.188167,40.5446667 103.7505,39.42 C104.312833,38.2953333 104.594,37.0903333 104.594,35.805 C104.594,34.0376667 104.031667,32.8326667 102.907,32.19 C101.782333,31.5473333 100.336333,31.226 98.569,31.226 C97.4443333,31.226 96.6811667,31.3063333 96.2795,31.467 C95.8778333,31.6276667 94.1506667,32.19 91.098,33.154 C90.134,33.4753333 89.2905,33.7163333 88.5675,33.877 C87.8445,34.0376667 87.1616667,34.2786667 86.519,34.6 C84.7516667,34.9213333 83.5065,35.4033333 82.7835,36.046 C82.0605,36.6886667 81.0563333,37.492 79.771,38.456 C78.807,39.0986667 77.9635,39.5806667 77.2405,39.902 C76.5175,40.2233333 75.7945,40.5446667 75.0715,40.866 C74.3485,41.1873333 73.5451667,41.6693333 72.6615,42.312 C71.7778333,42.9546667 70.7736667,43.9186667 69.649,45.204 C68.8456667,46.4893333 68.0423333,47.5738333 67.239,48.4575 C66.4356667,49.3411667 65.7126667,50.1445 65.07,50.8675 C64.4273333,51.5905 63.8248333,52.3536667 63.2625,53.157 C62.7001667,53.9603333 62.178,54.9243333 61.696,56.049 C60.8926667,57.013 60.2098333,58.3385 59.6475,60.0255 C59.0851667,61.7125 58.6433333,63.038 58.322,64.002 C58.0006667,64.966 57.7596667,65.8496667 57.599,66.653 C57.4383333,67.4563333 57.1973333,68.34 56.876,69.304 C56.5546667,71.0713333 56.2333333,72.5173333 55.912,73.642 C55.5906667,74.7666667 55.2693333,76.2126667 54.948,77.98 C54.6266667,78.7833333 54.6668333,79.5465 55.0685,80.2695 C55.4701667,80.9925 55.671,81.836 55.671,82.8 C55.671,83.764 55.9521667,84.8083333 56.5145,85.933 C57.0768333,87.0576667 57.1973333,88.4233333 56.876,90.03 C56.876,91.476 57.0366667,92.6408333 57.358,93.5245 C57.6793333,94.4081667 58.2416667,95.4926667 59.045,96.778 C59.3663333,98.5453333 59.6876667,99.911 60.009,100.875 C60.3303333,101.839 60.8926667,102.963667 61.696,104.249 C62.3386667,105.534333 63.2625,106.458167 64.4675,107.0205 C65.6725,107.582833 66.998,108.185333 68.444,108.828 C70.0506667,109.952667 71.2556667,110.916667 72.059,111.72 C72.8623333,112.523333 74.3083333,112.925 76.397,112.925 Z" id="«" fill="#FFFFFF" fill-rule="nonzero"></path>
    </g>
</svg>

<svg width="119" height="137" viewBox="0 0 119 137" xmlns="http://www.w3.org/2000/svg"><path class="guillemets" d="M32.776 112.925c4.177 0 7.19-.884 9.037-2.651 1.848-1.767 3.334-4.66 4.459-8.676.321-2.41.281-4.017-.12-4.82-.402-.803-1.487-1.687-3.254-2.651-.321-.321-.884-.964-1.687-1.928s-1.366-1.446-1.687-1.446c-1.285 0-2.61-.603-3.977-1.808-1.365-1.204-2.57-2.73-3.614-4.578-1.045-1.848-1.848-3.897-2.41-6.146a21.38 21.38 0 01-.603-6.748c.16-1.446.361-3.093.602-4.94.242-1.848.724-3.776 1.447-5.785.723-2.008 1.727-3.976 3.012-5.904a17.212 17.212 0 014.82-4.82c2.089-1.767 3.615-3.173 4.579-4.218.964-1.044 2.57-1.887 4.82-2.53 1.285-.321 2.169-.562 2.651-.723.482-.16 1.607-.402 3.374-.723.643 0 1.125-.08 1.446-.241.321-.16.562-.321.723-.482.643 0 1.245-.562 1.808-1.687a7.973 7.973 0 00.843-3.615c0-1.767-.562-2.972-1.687-3.615-1.125-.643-2.57-.964-4.338-.964-1.125 0-1.888.08-2.29.241-.401.16-2.128.723-5.181 1.687-.964.321-1.807.562-2.53.723a8.858 8.858 0 00-2.049.723c-1.767.321-3.012.803-3.736 1.446-.723.643-1.727 1.446-3.012 2.41a41.889 41.889 0 01-2.29 1.446c-.562.321-1.084.643-1.566.964-.482.321-1.044.803-1.687 1.446-.643.643-1.526 1.607-2.651 2.892-.803 1.285-1.566 2.37-2.29 3.254a32.599 32.599 0 01-2.168 2.41 17.13 17.13 0 00-1.928 2.289c-.563.803-1.085 1.767-1.567 2.892-.803.964-1.486 2.29-2.049 3.977l-1.325 3.976c-.321.964-.522 1.848-.603 2.651-.08.803-.28 1.687-.602 2.651-.321 1.767-.683 3.213-1.085 4.338-.401 1.125-.763 2.57-1.084 4.338-.643 1.446-.602 3.334.12 5.663.724 2.33.924 4.459.603 6.387 0 1.446.16 2.61.482 3.495.321.883.803 1.968 1.446 3.253.321 1.767.683 3.133 1.085 4.097a55.06 55.06 0 001.566 3.374c.803 1.285 1.807 2.21 3.012 2.772a153.75 153.75 0 013.736 1.807 679.323 679.323 0 004.579 2.892c1.285.803 2.892 1.205 4.82 1.205zm43.621 0c4.017 0 7.551-1.205 10.604-3.615 3.053-2.41 5.061-5.704 6.025-9.881.321-2.25.281-4.097-.12-5.543-.402-1.446-1.406-2.731-3.013-3.856-.321-.321-.884-.603-1.687-.844-.803-.24-1.366-.361-1.687-.361-1.125 0-1.928-.241-2.41-.723-.482-.482-1.044-.723-1.687-.723-.321 0-.643.12-.964.361-.321.242-.643.362-.964.362-1.446 0-2.852-.723-4.218-2.169-1.365-1.446-2.49-3.133-3.373-5.061a33.21 33.21 0 01-2.049-5.784c-.482-1.928-.643-3.374-.482-4.338.16-1.285.402-2.892.723-4.82a33.888 33.888 0 011.567-5.905 30.855 30.855 0 012.891-5.904c1.206-1.928 2.852-3.535 4.941-4.82 1.928-1.767 4.057-3.053 6.386-3.856 2.33-.803 4.62-1.526 6.869-2.169 1.285-.321 2.169-.562 2.651-.723.482-.16 1.607-.402 3.374-.723.643 0 1.125-.08 1.446-.241.321-.16.562-.321.723-.482.643 0 1.245-.562 1.808-1.687a7.973 7.973 0 00.843-3.615c0-1.767-.562-2.972-1.687-3.615-1.125-.643-2.57-.964-4.338-.964-1.125 0-1.888.08-2.29.241-.401.16-2.128.723-5.181 1.687-.964.321-1.808.562-2.53.723a8.858 8.858 0 00-2.049.723c-1.767.321-3.013.803-3.736 1.446-.722.643-1.727 1.446-3.012 2.41-.964.643-1.808 1.125-2.53 1.446l-2.17.964c-.722.321-1.526.803-2.41 1.446-.883.643-1.887 1.607-3.012 2.892-.803 1.285-1.607 2.37-2.41 3.254-.803.883-1.526 1.687-2.169 2.41a25.158 25.158 0 00-1.807 2.289c-.563.803-1.085 1.767-1.567 2.892-.803.964-1.486 2.29-2.048 3.977l-1.326 3.976a22.283 22.283 0 00-.723 2.651c-.16.803-.402 1.687-.723 2.651-.321 1.767-.643 3.213-.964 4.338-.321 1.125-.643 2.57-.964 4.338-.321.803-.281 1.566.12 2.29.402.723.603 1.566.603 2.53 0 .964.281 2.008.843 3.133.563 1.125.683 2.49.362 4.097 0 1.446.16 2.61.482 3.495.321.883.884 1.968 1.687 3.253.321 1.767.643 3.133.964 4.097.321.964.884 2.089 1.687 3.374.643 1.285 1.567 2.21 2.772 2.772a238.71 238.71 0 003.976 1.807c1.607 1.125 2.812 2.089 3.615 2.892.803.803 2.25 1.205 4.338 1.205z" fill="#FFF" fill-rule="nonzero"/></svg>
